X: 40190
T: Timmy Collins'
R: slip jig
M: 9/8
K: Adorian
GBG AGE EDB|GBG AGE c2 A|B>AG AGE EDB|GED DEG A2:|
GAG GA/B/c dBG|AA/A/A AB/c/d e2 d|1 GAG GBc dBG|GED DEG A2:|
2 gba gfe dBG|GED DE/F/G A2||
|:G2 G AGE GED|G2 G AGE c2 A|B2 G AGE GED|GED DEG A3:|
G2 G GAB dBG|A2 A ABd e2 g|G2 G GAB dBA|GED DEG A2 D|
GG/G/G GBG dBG|AA/A/A AcA e2 f|gg/g/g fg/f/e dBA|G2 E DEG A3||

